content/1_docs/5_glossary/library.svg

<svg height="16" viewBox="0 0 16 16" width="16" xmlns="http://www.w3.org/2000/svg"><g fill="#111"><path d="m6 12h2c.6 0 1-.4 1-1v-7.5l3.2 7.9c.2.5.8.8 1.3.5l1.9-.8c.5-.2.8-.8.5-1.3l-3.8-9.3c-.2-.5-.8-.8-1.3-.5l-1.8.8c-.1-.4-.5-.8-1-.8h-2c-.6 0-1 .4-1 1v10c0 .6.4 1 1 1z" fill="#111"/><path d="m1 12h2c.6 0 1-.4 1-1v-10c0-.6-.4-1-1-1h-2c-.6 0-1 .4-1 1v10c0 .6.4 1 1 1z" fill="#111"/><path d="m0 14h16v2h-16z"/></g></svg>

<svg height="16" width="16" xmlns="http://www.w3.org/2000/svg"><path d="M6 12h2c.6 0 1-.4 1-1V3.5l3.2 7.9c.2.5.8.8 1.3.5l1.9-.8c.5-.2.8-.8.5-1.3L12.1.5c-.2-.5-.8-.8-1.3-.5L9 .8C8.9.4 8.5 0 8 0H6c-.6 0-1 .4-1 1v10c0 .6.4 1 1 1zm-5 0h2c.6 0 1-.4 1-1V1c0-.6-.4-1-1-1H1C.4 0 0 .4 0 1v10c0 .6.4 1 1 1zm-1 2h16v2H0z" fill="#111"/></svg>
